images/transit/bus-inbound.svg

<?xml version="1.0" standalone="no"?><!DOCTYPE svg PUBLIC "-//W3C//DTD SVG 1.1//EN" "http://www.w3.org/Graphics/SVG/1.1/DTD/svg11.dtd"><svg width="288px" height="264px" version="1.1" xmlns="http://www.w3.org/2000/svg" xmlns:xlink="http://www.w3.org/1999/xlink" xml:space="preserve" style="fill-rule:evenodd;clip-rule:evenodd;stroke-linejoin:round;stroke-miterlimit:1.41421;"><g><g id="bus-inbound" transform="matrix(0.5,0,0,0.5,-405.276,-249.794)"><g transform="matrix(2.00006,0,0,2.00006,-505.134,-699.462)"><path d="M898.101,666.358l21.376,-1.109l0.211,7.821l4.228,-0.633l-0.022,-13.261l-26.003,2.745l0.21,4.437Z" style="fill:#2a2b2a;fill-rule:nonzero;"/></g><g transform="matrix(2.00006,0,0,2.00006,-505.134,-699.462)"><path d="M927.088,671.802l-0.846,32.348l-15.01,2.115l-2.749,-31.502l18.605,-2.961Z" style="fill:#2a2b2a;fill-rule:nonzero;"/></g><g transform="matrix(2.00006,0,0,2.00006,-505.134,-699.462)"><g opacity="0.300003"><path d="M927.088,671.908l-0.211,7.505l-17.972,0.105l-0.422,-4.756l18.605,-2.854Z" style="fill:#5c5e5f;fill-rule:nonzero;"/></g></g><g transform="matrix(2.00006,0,0,2.00006,-505.134,-699.462)"><path d="M705.538,666.358l-21.376,-1.109l-0.211,7.821l-4.228,-0.633l0.022,-13.261l26.003,2.745l-0.21,4.437Z" style="fill:#2a2b2a;fill-rule:nonzero;"/></g><g transform="matrix(2.00006,0,0,2.00006,-505.134,-699.462)"><path d="M676.551,671.802l0.846,32.348l15.01,2.115l2.749,-31.502l-18.605,-2.961Z" style="fill:#2a2b2a;fill-rule:nonzero;"/></g><g transform="matrix(2.00006,0,0,2.00006,-505.134,-699.462)"><path d="M705.603,844.051l1.69,19.449l19.451,0l4.018,-19.661l-25.159,0.212Z" style="fill:#5c5e5f;fill-rule:nonzero;"/></g><g transform="matrix(2.00006,0,0,2.00006,-505.134,-699.462)"><path d="M725.899,843.626l0.845,19.874l6.02,-19.874l-6.865,0Z" style="fill:#2a2b2a;fill-rule:nonzero;"/></g><g transform="matrix(2.00006,0,0,2.00006,-505.134,-699.462)"><path d="M874.88,863.5l19.45,0l1.692,-19.45l-25.16,-0.211l4.018,19.661Z" style="fill:#5c5e5f;fill-rule:nonzero;"/></g><g transform="matrix(2.00006,0,0,2.00006,-505.134,-699.462)"><path d="M868.86,843.839l6.02,19.449l0.845,-19.449l-6.865,0Z" style="fill:#2a2b2a;fill-rule:nonzero;"/></g><g transform="matrix(2.00006,0,0,2.00006,-505.134,-699.462)"><path d="M705.473,844.037l190.708,0l7.188,-185.628l-202.538,1.691l4.642,183.937Z" style="fill:#e5e3dd;fill-rule:nonzero;"/></g><g transform="matrix(2.00006,0,0,2.00006,-505.134,-699.462)"><path d="M700.662,661.034l0,-21.143l25.807,-16.068l159.191,0l17.956,16.066l-0.458,21.055l-202.496,0.09Z" style="fill:#e5e3dd;fill-rule:nonzero;"/></g><g transform="matrix(2.00006,0,0,2.00006,-505.134,-699.462)"><path d="M721.167,635.463l0.042,24.679l164.124,-0.367l-0.32,-24.083l-163.846,-0.229Z" style="fill:#2a2b2a;fill-rule:nonzero;"/></g><g transform="matrix(2.00006,0,0,2.00006,-505.134,-699.462)"><path d="M706.394,668.468l1.904,100.83l186.025,-0.417l3.597,-99.359l-191.526,-1.054Z" style="fill:#313156;fill-rule:nonzero;"/></g><g transform="matrix(2.00006,0,0,2.00006,-505.134,-699.462)"><g opacity="0.300003"><path d="M894.042,768.715l-11.034,-98.881l-104.913,99.287l115.947,-0.406Z" style="fill:#0a1724;fill-rule:nonzero;"/></g></g><g transform="matrix(2.00006,0,0,2.00006,-505.134,-699.462)"><g opacity="0.300003"><path d="M706.394,668.468l1.389,71.139l70.75,-70.688l-72.139,-0.451Z" style="fill:#0a1724;fill-rule:nonzero;"/></g></g><g transform="matrix(2.00006,0,0,2.00006,-505.134,-699.462)"><path d="M726.207,640.692l0.028,8.271l8.139,0.106l0.027,6.871l3.038,-0.027l-0.001,-15.196l-3.143,0l-0.025,5.287l-5.128,0l0,-5.287l-2.935,-0.025Z" style="fill:#f19e75;fill-rule:nonzero;"/></g><g transform="matrix(2.00006,0,0,2.00006,-505.134,-699.462)"><g opacity="0.300003"><path d="M676.551,671.908l0.212,7.505l17.971,0.105l0.422,-4.756l-18.605,-2.854Z" style="fill:#5c5e5f;fill-rule:nonzero;"/></g></g><g transform="matrix(2.00006,0,0,2.00006,-505.134,-699.462)"><path d="M783.97,769.149l99.563,-99.71l-5.979,0l-99.688,99.689l6.104,0.021Z" style="fill:#494a73;fill-rule:nonzero;"/></g><g transform="matrix(2.00006,0,0,2.00006,-505.134,-699.462)"><path d="M800.47,769.298l4.862,0l0.845,-100.626l-5.502,-0.004l-0.205,100.63Z" style="fill:#dcdbd8;fill-rule:nonzero;"/></g><g transform="matrix(2.00006,0,0,2.00006,-505.134,-699.462)"><path d="M763.098,819.398l3.127,9.402l-18.691,0.036l3.043,-9.479l12.521,0.041Z" style="fill:#c2bfbc;fill-rule:nonzero;"/></g><g transform="matrix(2.00006,0,0,2.00006,-505.134,-699.462)"><path d="M745.01,828.794l3.127,-9.402l-18.691,-0.036l3.043,9.479l12.521,-0.041Z" style="fill:#f9f5e3;fill-rule:nonzero;"/></g><g transform="matrix(2.00006,0,0,2.00006,-505.134,-699.462)"><path d="M868.098,828.794l3.127,-9.402l-18.691,-0.036l3.043,9.479l12.521,-0.041Z" style="fill:#f9f5e3;fill-rule:nonzero;"/></g><g transform="matrix(2.00006,0,0,2.00006,-505.134,-699.462)"><path d="M850.01,819.398l3.127,9.402l-18.691,0.036l3.043,-9.479l12.521,0.041Z" style="fill:#c2bfbc;fill-rule:nonzero;"/></g><g transform="matrix(2.00006,0,0,2.00006,-505.134,-699.462)"><path d="M897.053,819.21l-0.327,9.59l-18.692,0.035l3.043,-9.479l15.976,-0.146Z" style="fill:#f19e75;fill-rule:nonzero;"/></g><g transform="matrix(2.00006,0,0,2.00006,-505.134,-699.462)"><path d="M720.51,819.231l3.127,9.402l-18.691,0.036l-0.226,-9.459l15.79,0.021Z" style="fill:#f19e75;fill-rule:nonzero;"/></g></g></g></svg>

<?xml version="1.0" encoding="UTF-8" standalone="no"?>
<!DOCTYPE svg PUBLIC "-//W3C//DTD SVG 1.1//EN" "http://www.w3.org/Graphics/SVG/1.1/DTD/svg11.dtd">
<svg width="100%" height="100%" viewBox="0 0 360 320" version="1.1" xmlns="http://www.w3.org/2000/svg" xmlns:xlink="http://www.w3.org/1999/xlink" xml:space="preserve" xmlns:serif="http://www.serif.com/" style="fill-rule:evenodd;clip-rule:evenodd;stroke-linejoin:round;stroke-miterlimit:2;">
    <g id="bus-inbound" transform="matrix(0.635,0,0,0.635,-517.58,-332.519)">
        <g transform="matrix(2.00006,0,0,2.00006,-505.134,-699.462)">
            <path d="M898.101,666.358L919.477,665.249L919.688,673.07L923.916,672.437L923.894,659.176L897.891,661.921L898.101,666.358Z" style="fill:rgb(41,43,41);fill-rule:nonzero;"/>
        </g>
        <g transform="matrix(2.00006,0,0,2.00006,-505.134,-699.462)">
            <path d="M927.088,671.802L926.242,704.15L911.232,706.265L908.483,674.763L927.088,671.802Z" style="fill:rgb(41,43,41);fill-rule:nonzero;"/>
        </g>
        <g transform="matrix(2.00006,0,0,2.00006,-505.134,-699.462)">
            <g opacity="0.3">
                <path d="M927.088,671.908L926.877,679.413L908.905,679.518L908.483,674.762L927.088,671.908Z" style="fill:rgb(91,93,94);fill-rule:nonzero;"/>
            </g>
        </g>
        <g transform="matrix(2.00006,0,0,2.00006,-505.134,-699.462)">
            <path d="M705.538,666.358L684.162,665.249L683.951,673.07L679.723,672.437L679.745,659.176L705.748,661.921L705.538,666.358Z" style="fill:rgb(41,43,41);fill-rule:nonzero;"/>
        </g>
        <g transform="matrix(2.00006,0,0,2.00006,-505.134,-699.462)">
            <path d="M676.551,671.802L677.397,704.15L692.407,706.265L695.156,674.763L676.551,671.802Z" style="fill:rgb(41,43,41);fill-rule:nonzero;"/>
        </g>
        <g transform="matrix(2.00006,0,0,2.00006,-505.134,-699.462)">
            <path d="M705.603,844.051L707.293,863.5L726.744,863.5L730.762,843.839L705.603,844.051Z" style="fill:rgb(91,93,94);fill-rule:nonzero;"/>
        </g>
        <g transform="matrix(2.00006,0,0,2.00006,-505.134,-699.462)">
            <path d="M725.899,843.626L726.744,863.5L732.764,843.626L725.899,843.626Z" style="fill:rgb(41,43,41);fill-rule:nonzero;"/>
        </g>
        <g transform="matrix(2.00006,0,0,2.00006,-505.134,-699.462)">
            <path d="M874.88,863.5L894.33,863.5L896.022,844.05L870.862,843.839L874.88,863.5Z" style="fill:rgb(91,93,94);fill-rule:nonzero;"/>
        </g>
        <g transform="matrix(2.00006,0,0,2.00006,-505.134,-699.462)">
            <path d="M868.86,843.839L874.88,863.288L875.725,843.839L868.86,843.839Z" style="fill:rgb(41,43,41);fill-rule:nonzero;"/>
        </g>
        <g transform="matrix(2.00006,0,0,2.00006,-505.134,-699.462)">
            <path d="M705.473,844.037L896.181,844.037L903.369,658.409L700.831,660.1L705.473,844.037Z" style="fill:rgb(229,226,220);fill-rule:nonzero;"/>
        </g>
        <g transform="matrix(2.00006,0,0,2.00006,-505.134,-699.462)">
            <path d="M700.662,661.034L700.662,639.891L726.469,623.823L885.66,623.823L903.616,639.889L903.158,660.944L700.662,661.034Z" style="fill:rgb(229,226,220);fill-rule:nonzero;"/>
        </g>
        <g transform="matrix(2.00006,0,0,2.00006,-505.134,-699.462)">
            <path d="M721.167,635.463L721.209,660.142L885.333,659.775L885.013,635.692L721.167,635.463Z" style="fill:rgb(41,43,41);fill-rule:nonzero;"/>
        </g>
        <g transform="matrix(2.00006,0,0,2.00006,-505.134,-699.462)">
            <path d="M706.394,668.468L708.298,769.298L894.323,768.881L897.92,669.522L706.394,668.468Z" style="fill:rgb(49,49,86);fill-rule:nonzero;"/>
        </g>
        <g transform="matrix(2.00006,0,0,2.00006,-505.134,-699.462)">
            <g opacity="0.3">
                <path d="M894.042,768.715L883.008,669.834L778.095,769.121L894.042,768.715Z" style="fill:rgb(9,23,36);fill-rule:nonzero;"/>
            </g>
        </g>
        <g transform="matrix(2.00006,0,0,2.00006,-505.134,-699.462)">
            <g opacity="0.3">
                <path d="M706.394,668.468L707.783,739.607L778.533,668.919L706.394,668.468Z" style="fill:rgb(9,23,36);fill-rule:nonzero;"/>
            </g>
        </g>
        <g transform="matrix(2.00006,0,0,2.00006,-505.134,-699.462)">
            <path d="M726.207,640.692L726.235,648.963L734.374,649.069L734.401,655.94L737.439,655.913L737.438,640.717L734.295,640.717L734.27,646.004L729.142,646.004L729.142,640.717L726.207,640.692Z" style="fill:rgb(240,157,116);fill-rule:nonzero;"/>
        </g>
        <g transform="matrix(2.00006,0,0,2.00006,-505.134,-699.462)">
            <g opacity="0.3">
                <path d="M676.551,671.908L676.763,679.413L694.734,679.518L695.156,674.762L676.551,671.908Z" style="fill:rgb(91,93,94);fill-rule:nonzero;"/>
            </g>
        </g>
        <g transform="matrix(2.00006,0,0,2.00006,-505.134,-699.462)">
            <path d="M783.97,769.149L883.533,669.439L877.554,669.439L777.866,769.128L783.97,769.149Z" style="fill:rgb(73,74,115);fill-rule:nonzero;"/>
        </g>
        <g transform="matrix(2.00006,0,0,2.00006,-505.134,-699.462)">
            <path d="M800.47,769.298L805.332,769.298L806.177,668.672L800.675,668.668L800.47,769.298Z" style="fill:rgb(219,218,215);fill-rule:nonzero;"/>
        </g>
        <g transform="matrix(2.00006,0,0,2.00006,-505.134,-699.462)">
            <path d="M763.098,819.398L766.225,828.8L747.534,828.836L750.577,819.357L763.098,819.398Z" style="fill:rgb(194,191,188);fill-rule:nonzero;"/>
        </g>
        <g transform="matrix(2.00006,0,0,2.00006,-505.134,-699.462)">
            <path d="M745.01,828.794L748.137,819.392L729.446,819.356L732.489,828.835L745.01,828.794Z" style="fill:rgb(248,244,227);fill-rule:nonzero;"/>
        </g>
        <g transform="matrix(2.00006,0,0,2.00006,-505.134,-699.462)">
            <path d="M868.098,828.794L871.225,819.392L852.534,819.356L855.577,828.835L868.098,828.794Z" style="fill:rgb(248,244,227);fill-rule:nonzero;"/>
        </g>
        <g transform="matrix(2.00006,0,0,2.00006,-505.134,-699.462)">
            <path d="M850.01,819.398L853.137,828.8L834.446,828.836L837.489,819.357L850.01,819.398Z" style="fill:rgb(194,191,188);fill-rule:nonzero;"/>
        </g>
        <g transform="matrix(2.00006,0,0,2.00006,-505.134,-699.462)">
            <path d="M897.053,819.21L896.726,828.8L878.034,828.835L881.077,819.356L897.053,819.21Z" style="fill:rgb(240,157,116);fill-rule:nonzero;"/>
        </g>
        <g transform="matrix(2.00006,0,0,2.00006,-505.134,-699.462)">
            <path d="M720.51,819.231L723.637,828.633L704.946,828.669L704.72,819.21L720.51,819.231Z" style="fill:rgb(240,157,116);fill-rule:nonzero;"/>
        </g>
    </g>
</svg>
